icons/pentagon/pentagon-fill.svg

<svg width="14" height="14" viewBox="0 0 14 14" fill="none" xmlns="http://www.w3.org/2000/svg">
<path d="M7.58779 2.92705L11.1438 5.51064C11.4943 5.76529 11.6409 6.21665 11.5071 6.62868L10.1488 10.809C10.0149 11.221 9.63096 11.5 9.19774 11.5H4.80227C4.36904 11.5 3.98509 11.221 3.85121 10.809L2.49294 6.62868C2.35906 6.21665 2.50572 5.76529 2.85621 5.51064L6.41222 2.92705C6.76271 2.67241 7.2373 2.67241 7.58779 2.92705Z" fill="red" stroke="red"/>
</svg>

<svg xmlns="http://www.w3.org/2000/svg" width="14" height="14" fill="none" viewBox="0 0 14 14"><path fill="red" stroke="red" d="m7.588 2.927 3.556 2.584a1 1 0 0 1 .363 1.118l-1.358 4.18a1 1 0 0 1-.951.691H4.802a1 1 0 0 1-.95-.691l-1.36-4.18a1 1 0 0 1 .364-1.118l3.556-2.584a1 1 0 0 1 1.176 0Z"/></svg>
